img/common/logo.svg

<svg width="50" height="50" viewBox="0 0 50 50" fill="none" xmlns="http://www.w3.org/2000/svg">
<path d="M12.359 7.91789C11.1766 6.73548 9.26604 6.73548 8.08364 7.91789C6.90123 9.10029 6.90123 11.0108 8.08364 12.1933L8.85187 12.9615C12.1853 16.2949 9.82718 21.9932 5.11092 21.9932L4.02204 21.9999C2.35198 21.9999 1.00256 23.3493 1.00256 25.0193C1.00256 26.6894 2.35866 28.0455 4.02872 28.0455H5.12428C9.82719 28.0455 12.1853 33.7438 8.85187 37.0772L8.08364 37.8454C6.90123 39.0278 6.90123 40.9384 8.08364 42.1208C9.26604 43.3032 11.1766 43.3032 12.359 42.1208L13.1272 41.3526C16.4607 38.0191 22.1589 40.3773 22.1589 45.0935L22.1656 46.1824C22.1656 47.8525 23.5217 49.2086 25.1918 49.2086C26.8618 49.2086 28.2179 47.8525 28.2179 46.1824L28.2179 45.0868C28.2179 40.3706 33.9162 38.0124 37.2496 41.3459L38.0179 42.1141C39.2003 43.2965 41.1108 43.2965 42.2932 42.1141C43.4756 40.9317 43.4756 39.0212 42.2932 37.8388L41.525 37.0705C38.1916 33.7371 40.5497 28.0388 45.266 28.0388L46.3615 28.0388C48.0316 28.0388 49.3877 26.6827 49.3877 25.0127C49.3877 23.3426 48.0316 21.9865 46.3615 21.9865L45.266 21.9865C40.5497 21.9865 38.1916 16.2883 41.525 12.9548L42.2866 12.1933C43.469 11.0108 43.469 9.10029 42.2866 7.91789C41.1042 6.73548 39.1936 6.73548 38.0112 7.91789L37.243 8.68612C33.9095 12.0196 28.2113 9.66144 28.2113 4.94517L28.2113 3.84961C28.2113 2.17955 26.8552 0.823454 25.1851 0.823452C23.515 0.823454 22.1589 2.17955 22.1589 3.84961L22.1589 4.94517C22.1589 9.66143 16.4607 12.0196 13.1272 8.68612L12.359 7.91789ZM24.1163 21.8128C25.8865 23.5831 25.8865 26.4556 24.1163 28.2259C22.346 29.9961 19.4735 29.9961 17.7032 28.2259C15.9329 26.4556 15.9329 23.5831 17.7032 21.8128C19.4735 20.0426 22.346 20.0426 24.1163 21.8128ZM33.2014 26.6226C32.3129 27.5111 30.8834 27.5111 29.9949 26.6226C29.1064 25.7341 29.1064 24.3046 29.9949 23.4161C30.8834 22.5276 32.3129 22.5276 33.2014 23.4161C34.0899 24.3046 34.0899 25.7341 33.2014 26.6226Z" fill="url(#paint0_linear_2_26)"/>
<defs>
<linearGradient id="paint0_linear_2_26" x1="25.1851" y1="59.2223" x2="25.1851" y2="-9.18357" gradientUnits="userSpaceOnUse">
<stop stop-color="#5EBAB9"/>
<stop offset="1" stop-color="#69CB67"/>
</linearGradient>
</defs>
</svg>

<svg width="50" height="50" fill="none" xmlns="http://www.w3.org/2000/svg"><path d="M12.359 7.918a3.02 3.02 0 00-4.275 0 3.02 3.02 0 000 4.275l.768.768c3.333 3.334.975 9.032-3.741 9.032L4.022 22c-1.67 0-3.02 1.35-3.02 3.02a3.028 3.028 0 003.027 3.026h1.095c4.703 0 7.061 5.698 3.728 9.031l-.768.768a3.02 3.02 0 000 4.276 3.02 3.02 0 004.275 0l.768-.768c3.334-3.334 9.032-.976 9.032 3.74l.007 1.09a3.028 3.028 0 003.026 3.026 3.028 3.028 0 003.026-3.027v-1.095c0-4.716 5.698-7.075 9.032-3.741l.768.768a3.02 3.02 0 004.275 0 3.02 3.02 0 000-4.275l-.768-.768c-3.333-3.334-.975-9.032 3.741-9.032h1.096a3.028 3.028 0 003.026-3.026 3.028 3.028 0 00-3.026-3.027h-1.096c-4.716 0-7.074-5.698-3.741-9.031l.762-.762a3.02 3.02 0 000-4.275 3.02 3.02 0 00-4.276 0l-.768.768c-3.334 3.334-9.032.975-9.032-3.74V3.85A3.028 3.028 0 0025.185.823 3.028 3.028 0 0022.16 3.85v1.095c0 4.716-5.698 7.075-9.032 3.741l-.768-.768zm11.757 13.895a4.536 4.536 0 010 6.413 4.536 4.536 0 110-6.413zm9.085 4.81a2.262 2.262 0 01-3.206 0 2.262 2.262 0 010-3.207 2.262 2.262 0 013.206 0 2.262 2.262 0 010 3.207z" fill="url(#paint0_linear_2_26)"/><defs><linearGradient id="paint0_linear_2_26" x1="25.185" y1="59.222" x2="25.185" y2="-9.184" gradientUnits="userSpaceOnUse"><stop stop-color="#5EBAB9"/><stop offset="1" stop-color="#69CB67"/></linearGradient></defs></svg>
